X: 2425
T: TOM BRIGG'S JIG
%R: hornpipe
B: James Kerr "Merry Melodies" v.2 p.48 #425
Z: 2016 John Chambers <jc:trillian.mit.edu>
M: C
L: 1/8
K: D
|:\
vDF zuA dAF2 | uGB zvd ug4 |\
vDF zuA dA F2 | E8 |\
vDF zuA dA F2 | uGB zud vg4 |\
vfedf edce | zudAF D4 :| :|
|:\
vfa zuf afa2 | ufa zvf ef d2 |\
vgb zug bg b2 | ugb zf ef d2 |\
vfa zuf af a2 | ufa zuf edeg |\
fedf edce | zudAF D4 :|
